X:1
T: Kerr's First Jig #5
C:
R:Jig
Q:180
K:A
M:6/8
L:1/16
c4c2 c2B2A2|c4c2 c2B2A2|A2c2e2 a2e2c2|B4B2 B2e2d2|c4c2 c2B2A2|c4c2 c2B2A2|A2c2e2 a4a2|b2a2g2 a4c2|
A4f2 e4f2|c4B2 A4E2|F2G2A2 B4G2|A6 A4e2|e4c2 e2f2g2|a4a2 g4f2|f4e2 c4e2|f6f4e2|
e4c2 e2f2g2|a4a2 g4f2|f4e2 c4e2|f6g4a2|e4c2 e4f2|c4B2 A4E2|F2G2A2 B4G2|A6a6|
c4c2 c2B2A2|c4c2 c2B2A2|A2c2e2 a2e2c2|B4B2 B2e2d2|c4c2 c2B2A2|c4c2 c2B2A2|A2c2e2 a4a2|b2a2g2 a6||
